X:8  
T:Polka
C:G. Chabenat
I:Airs nouveaux pour danses anciennes
Q:1/4=95
M:4/8
K:D
FA fe d2 A2 |Ge de EF GA |FA fe d2 A2 |d=c E2 ^cd f  |
M:2/8     
EF GA :|
M:4/8 
d3 A df G2 |Gf ed cB AG |
M:3/8     
F2 EF GA |
M:4/8     
d3 A df G2 |Gf dA EF GA |1
M:3/8    
D2 EF GA :|2
M:1/8     
D2 |]
